X:1
T:O Bethlehem, du kleine Stadt
T:Aria Pastorella 1 ex C
%%score 1 2 3 4
L:1/8
M:2/4
K:C
V:1 treble+8 nm="S" snm="S"
V:2 treble nm="A" snm="A"
V:3 treble nm="T" snm="T"
V:4 bass+8 nm="B" snm="B"
V:1
 z | z z z2 | z4 | z4 | z2 z G | cGec | g/f/e/d/ cG | %7
"^Johann Valentin Rathgeber\nArrangement:Alfred Dünser\n" cG e/d/c/B/ | c3 g | ecdG | ecdG | c3 c | %12
 AFGE | FDEF | E2 TD2 | C3 G | EDE^F | G3 D | EDE^F | G^FGA | B2 A2 | G3 B/c/ | dBec | d3 B/c/ | %24
 dBec | d3 :: z | z4 | z4 | z4 | z2 z D | GDBG | d/c/B/A/ GD | GD B/A/G/^F/ | G3 d | BGAD | BGAD | %37
 G3 g | ecdB | cABc | B2 TA2 | G3 z | z4 | z2 z G | AGAB | c3 G | AGAB | cBcd | e2 d2 | c3 e/f/ | %50
 geaf | g3 E/F/ | GEAF | G3 :| %54
V:2
 z | z4 | z4 | z4 | z4 | z2 z G | cGec | g/f/e/d/ cG | cG e/d/c/B/ | cegg | ce g g | e3 z | c2 c2 | %13
 A2 c2 | c2 B2 | c3 z | G4- | G4 | G4- | G4 | g2 ^f2 | g3 g/a/ | bgc'a | b3 g/a/ | bgc'a | b3 :: %26
 d | gdbg | d'/c'/b/a/ gd' | bgd'd | g3 z | G4 | G3 G | G4 | B2 d2 | g3 d | d4 | B3 z | G2 G2 | %39
 A2 G2 | d2 c2 | B3 z | z4 | z2 z e | fefd | edec | fefd | edef | gf gG | c3 c/d/ | ecfd | %51
 e3 c/d/ | ecfd | e3 :| %54
V:3
 G | cGec | g/f/e/d/ cg | ecgG | c3 c | G4 | G3 G | G4 | GEGE | G2 G2 | G2 G2 | EF GE | FA GG | %13
 AF GA | G2 G2 | E3 z | cBcA | BABG | cBcA | BABc | dcdD | G3 G | G4- | GGGG | G4- | G3 :: z | z4 | %28
 z4 | z4 | z4 | z2 z D | GDBG | d/c/B/A/ GD | GD B/A/G/^F/ | GBdd | GBdd | Bc dB | cedd | ecde | %40
 G2 ^F2 | G3 z | z4 | z2 z G | G4- | G4 | G4- | G4 | G4 | G4 | G4- | GGGG | G4- | G3 :| %54
V:4
 G,, | C,G,,E,C, | G,/F,/E,/D,/ C,G, | E,C,G,G,, | C,3 C, | C,4 | C,3 C, | C,4 | C,CC,C | %9
 C,2 G,,2 | C,2 G,,2 | C,D,E,C, | F,2 E,2 | D,2 C,2 | G,F,G,G,, | C,3 z | G,,4- | G,,4 | G,,4- | %19
 G,,4 | D,4 | G,,3 G,, | G,,4- | G,,G,,G,,G,, | G,,4- | G,,3 :: D, | G,D,B,G, | D/C/B,/A,/ G,D | %29
 B,G,DD, | G,3 G,, | G,,4 | G,,3 G,, | G,,4 | G,G,,G,G,, | G,,2 D,2 | G,,2 D,2 | G,A,B,G, | %38
 C2 B,2 | A,2 G,2 | DCDD, | G,3 G, | E,C,D,G,, | C,3 C, | C,4- | C,4 | C,4- | C,4 | G,4 | C,4 | %50
 C,4- | C,C,C,C, | C,4- | C,3 :| %54

